64x64/apps/zdoom.svg

<svg height="64" width="64" xmlns="http://www.w3.org/2000/svg"><circle cx="32" cy="33" opacity=".2" r="28"/><circle cx="32" cy="32" fill="#a71416" r="28"/><g fill="none" stroke-linejoin="round" stroke-width="6"><path d="m32 26h12.3s2.7 2.6 2.7 7.5-2.7 6.5-2.7 6.5h-9.3v-7" opacity=".2" stroke="#000"/><path d="m32 25h12.3s2.7 2.6 2.7 7.5-2.7 6.5-2.7 6.5h-9.3v-7" stroke="#9e9e9e"/><path d="m15 26h17l-14 14h17" opacity=".2" stroke="#000"/><path d="m15 25h17l-14 14h17" stroke="#fefefe"/></g><path d="m32 4a28 28 0 0 0 -28 28 28 28 0 0 0 .021.586 28 28 0 0 1 27.979-27.586 28 28 0 0 1 27.979 27.414 28 28 0 0 0 .021-.414 28 28 0 0 0 -28-28z" fill="#f4f4f7" opacity=".1"/></svg>

<svg width="64" height="64" xmlns="http://www.w3.org/2000/svg"><circle cx="32" cy="33" r="28" style="opacity:.2"/><circle cx="32" cy="32" r="28" style="fill:#a71416"/><path d="M32 26h12.3s2.7 2.6 2.7 7.5-2.7 6.5-2.7 6.5H35v-7" style="fill:none;opacity:.2;stroke-linejoin:round;stroke-width:6;stroke:#000"/><path d="M32 25h12.3s2.7 2.6 2.7 7.5-2.7 6.5-2.7 6.5H35v-7" style="fill:none;stroke-linejoin:round;stroke-width:6;stroke:#9e9e9e"/><path d="M15 26h17L18 40h17" style="fill:none;opacity:.2;stroke-linejoin:round;stroke-width:6;stroke:#000"/><path d="M15 25h17L18 39h17" style="fill:none;stroke-linejoin:round;stroke-width:6;stroke:#fefefe"/><path d="M32 4A28 28 0 0 0 4 32a28 28 0 0 0 .021.586A28 28 0 0 1 32 5a28 28 0 0 1 27.979 27.414A28 28 0 0 0 60 32 28 28 0 0 0 32 4z" style="fill:#f4f4f7;opacity:.1"/></svg>
